X:1
T:Title
%%score ( 1 2 ) { 3 | 4 }
L:1/8
Q:1/4=230
M:3/2
K:G
V:1 treble nm="Grand Piano, Soprano"
V:2 treble 
V:3 treble nm="Choir Pad, Kirk Ella, Henry E. Nichol"
V:4 bass 
V:1
 [Gd]4 [Fc]4 [GB]4 | B4 A4 E4 | F4 G4 [DA]4 | [Ec]8 [DB]4 | A4 B4 [FA]4 | [EG]12 | F4 z4 z4 | %7
w: By~Henry~Ernest~Nichol~(1862\-1926) * *|||||||
 E4 D4 C4 | [B,D]8 [DB]4 | B4 A4 [^CE]4 | F4 G4 A4 | [B,G]12- | [B,G]4 z4 z4 |] %13
w: ||||||
V:2
 x12 | E8 z4 | E8 z4 | x12 | F8 z4 | x12 | ^D4- [DG]4 [DF]4 | x12 | x12 | ^C8 z4 | C12 | x12 | %12
 x12 |] %13
V:3
 B,4 C4 D4 | D4 C4[K:bass] A,4 | C4 B,4 A,4 | G,8 D4 | B,8 B,4 | B,4 C4 B,4 | A,8 A,4 | G,12 | %8
 G,8 G,4 | E,8 G,4 | A,4 G,4 F,4 | G,12- | G,4 z4 z4 |] %13
V:4
 G,,4 A,,4 B,,4 | C,8 ^C,4 | D,4 E,4 F,4 | z4 z4 G,4 | ^D,8 D,4 | E,12 | B,,8 B,,4 | C,12 | %8
 D,8 E,4 | D,8 D,4 | D,12 | G,,12- | G,,4 z4 z4 |] %13

